!!!COM: Power, Leonel
!!!OTL: Anima mea liquefacta est
!!!ONM: No. 25
!!!YOR: from: "Complete Works" edited by Charles Hamm, Vol. 1, Motets, pp.??
!!!YOO: American Institute of Musicology
!!!YOY: 1969
**kern	**kern	**kern
*ICvox	*ICvox	*ICvox
! tenor	! contratenor	! discantus
*M2/4	*M2/4	*M2/4
=1	=1	=1
*>A	*>A	*>A
!! Section 'A'; (C) mensuration.
2r	4.f	2f
.	[8d	.
=2	=2	=2
2r	8d]	8f
.	8e	8g
.	8f	8a
.	8d	8b
=3	=3	=3
2r	8c	8.cc
.	4d	.
.	.	16a
.	.	8.b
.	8e	.
.	.	16g
=4	=4	=4
2r	8f	4f
.	4d	.
.	.	8a
.	8e	[8g
=5	=5	=5
2r	4c	8g]
.	.	8a
.	8.B	8b
.	.	16a
.	16A	16b
=6	=6	=6
2r	[2F	8.cc
.	.	16a
.	.	[4a
=6a	=6a	=6a
2r	2F;]	2a;]
=7	=7	=7
*>B	*>B	*>B
!! Section 'B'; (C) mensuration.
2r	4f	4a
.	8f	8a
.	8f	8a
=8	=8	=8
2r	4e	4g
.	4f	4f
=9	=9	=9
2r	8c	4cc
.	4e	.
.	.	8b
.	8f	[8a
=10	=10	=10
2r	4d	8a]
.	.	8f
.	4c	8g
.	.	8a
=11	=11	=11
2r	4B	4b
.	4f	8.a
.	.	16f
=12	=12	=12
2r	8r	4g
.	8e	.
.	4f	8r
.	.	8f
=13	=13	=13
2r	8e	8g
.	4d	8.f
.	.	16d
.	8c	8e
=14	=14	=14
2r	4B	8.f
.	.	16e
.	4c	4c
=15	=15	=15
2r	4f	8r
.	.	4c
.	8r	.
.	[8f	8a
=16	=16	=16
2r	16f]	8g
.	16e	.
.	8f	4f
.	4d	.
.	.	8a
=17	=17	=17
2r	8c	16g
.	.	16a
.	8B	4b
.	8.d	.
.	.	8a
.	16c	.
=18	=18	=18
2r	8B	16g
.	.	16f
.	8A	4f
.	4G	.
.	.	8e
=19	=19	=19
2r	[2F	2f
=19a	=19a	=19a
2r	2F]	2r
=20	=20	=20
*>C	*>C	*>C
!! Section 'C'; (C) mensuration.
4F	2r	4cc
4A	.	4cc
=21	=21	=21
4c	4F	4a
4c	4A	[4e
=22	=22	=22
2e	4c	4e]
.	8c	4g
.	8c	.
=23	=23	=23
4f	4A	4a
4f	4A	4cc
=24	=24	=24
[2g	[2G	2bn
=25	=25	=25
2g]	2G]	2bn
=26	=26	=26
4f	4d	8r
.	.	8a
4e	4c	4cc
=27	=27	=27
2d	4G	8.dd
.	.	16cc
.	4e	8a
.	.	8b
=28	=28	=28
2c	4g	4cc
.	4e	8a
.	.	[8g
=29	=29	=29
4e-	8c	8g]
.	8G	4b
4d	4f	.
.	.	[8a
=30	=30	=30
8c	8e	8a]
8B	8d	4g
4A	8c	.
.	16B	8f
.	16c	.
=31	=31	=31
4G	4d	4g
4F	8r	4cc
.	8c	.
=32	=32	=32
2r	2d	8b
.	.	8a
.	.	4f
=33	=33	=33
2r	4c	8a
.	.	4g
.	8B	.
.	8A	8f
=34	=34	=34
4c	4F	4a
8B	8G	4r
8A	8F	.
=35	=35	=35
4F	4c	4a
8r	4f	4cc
8F	.	.
=36	=36	=36
8c	8e	4a
4d	8d	.
.	8f	8b
8c	8e	[8cc
=37	=37	=37
8A	8c	16cc]
.	.	16a
8c	8e	8a
4B	8d	8f
.	16c	8g
.	16d	.
=38	=38	=38
[2A	4e	2a
.	8f	.
.	8e	.
=39	=39	=39
4A]	4.c	4r
4F	.	4a
.	8f	.
=40	=40	=40
8G	4e	8b
8E	.	8g
4F	4c	8a
.	.	8cc
=41	=41	=41
8G	8r	8b
8B	8G	8g
8.A	4c	8f
.	.	8a
16F	.	.
=42	=42	=42
4E	4e	8g
.	.	4cc
[4F	[4c	.
.	.	[8a
=43	=43	=43
4F]	4c]	8a]
.	.	4f
4A	8r	.
.	[8c	[8e
=44	=44	=44
2c	8c]	8e]
.	4e	4c
.	8c	8e
=45	=45	=45
4d	8B	8f
.	8f	4a
8c	8e	.
[8B	[8d	[8g
=46	=46	=46
8B]	8d]	16g]
.	.	16f
8A	8c	4f
4G	8B	.
.	16A	8e
.	16B	.
=47	=47	=47
[2F	2c	2f
=48	=48	=48
2F]	8d	2r
.	8c	.
.	4f	.
=49	=49	=49
2c	[2e	4g
.	.	8a
.	.	[8cc
=50	=50	=50
2c	2e]	8cc]
.	.	8b
.	.	8a
.	.	8g
=51	=51	=51
2c	2g	4e
.	.	8c
.	.	8e
=52	=52	=52
2Bn	8d	8f
.	4.g	8e
.	.	4d
=53	=53	=53
4c	8a	4c
.	8g	.
4c	8e	8r
.	16d	8cc
.	16e	.
=54	=54	=54
2B	2f	2dd
=55	=55	=55
4e-	4g	8cc
.	.	8b
4e-	8r	4g
.	8c	.
=56	=56	=56
4d	2f	8f
.	.	4b
4d	.	.
.	.	8a
=57	=57	=57
4c	8.g	4cc
.	16f	.
8B	8d	8g
8A	8c	8f
=58	=58	=58
4G	4d	4b
4F	4f	4a
=59	=59	=59
8E	8r	8g
8E	8e	8g
4F	4c	8a
.	.	[8cc
=60	=60	=60
4E	4e	8cc]
.	.	8b
4F	8d	4a
.	8f	.
=61	=61	=61
4c	8e	4g
.	8c	.
4Bnx	8f	4d
.	8g	.
=62	=62	=62
2c	8e	4c
.	4g	.
.	.	8r
.	8e	8cc
=63	=63	=63
8r	4d	4dd
8Bnx	.	.
4e	4A	4cc
=64	=64	=64
8d	8B	8b
4f	4f	8a
.	.	8f
8e	[8c	8g
=65	=65	=65
8c	8c]	8a
4e	8G	8b
.	8A	8cc
8d	8B	[8dd
=66	=66	=66
8B	8G	8dd]
8c	8r	8.cc
4d	4f	.
.	.	16a
.	.	8bnx
=67	=67	=67
[2c	[2g	2cc
=68	=68	=68
2c]	2g]	2r
=69	=69	=69
*>D	*>D	*>D
!! Section 'D'; (C) mensuration.
2f	2r	2a
=70	=70	=70
8d	2r	8f
8c	.	8g
8f	.	8a
8g	.	8b
=71	=71	=71
4a	2r	4cc
4f	.	8a
.	.	[8dd
=72	=72	=72
8g	2r	16dd]
.	.	16cc
8e	.	4cc
4d	.	.
.	.	8bnx
=73	=73	=73
4c	2r	4cc
4G	.	4dd
=74	=74	=74
8A	2r	8cc
8G	.	8b
4c	.	8a
.	.	8g
=75	=75	=75
8d	2r	8f
4d	.	8.a
.	.	16g
8c#x	.	16f
.	.	16e
=76	=76	=76
2d	2r	4d
.	.	8r
.	.	[8f
=77	=77	=77
8r	2r	8f]
8B	.	8g
8c	.	8a
[8G	.	[8b
=78	=78	=78
8G]	2r	16b]
.	.	16g
8B	.	4g
4A	.	.
.	.	8f#x
=79	=79	=79
2G	2r	4g
.	.	8r
.	.	8g
=80	=80	=80
8r	2r	8a
8F	.	8a
8F	.	4a
8F	.	.
=81	=81	=81
4F	2r	4r
4B	.	4g
=82	=82	=82
8c	2r	4f
4f	.	.
.	.	8d
8e	.	8c
=83	=83	=83
8d	2r	4d
4f	.	.
.	.	8B
8e	.	8c
=84	=84	=84
8d	2r	8f
8c	.	8e
4Bnx	.	4d
=85	=85	=85
2c	2r	4c
.	.	8e
.	.	8f
=86	=86	=86
4r	2r	4g
8e	.	4r
8f	.	.
=87	=87	=87
4g	2r	4e
8d	.	8f
[8f	.	8d
=88	=88	=88
8f]	2r	8f
8e	.	8g
8c	.	4a
[8d	.	.
=89	=89	=89
8d]	2r	8.b
8B	.	.
.	.	16g
4A	.	4cc
=90	=90	=90
2G	2r	4.dd
.	.	8cc
=91	=91	=91
8r	2r	8b
4d	.	8a
.	.	8.f
[8c	.	16g
=92	=92	=92
8c]	2r	8a
8B	.	8.g
4A	.	16e
.	.	8f#x
=93	=93	=93
2G	2r	4g
.	.	4r
=94	=94	=94
2c	2r	8g
.	.	16f
.	.	16g
.	.	8a
.	.	[8g
=95	=95	=95
4e	2r	8g]
.	.	8e
4f	.	4d
=96	=96	=96
4g	2r	4c
8.e	.	4r
16c	.	.
=97	=97	=97
4B	2r	4g
8c	.	8.e
[8c	.	.
.	.	16c
=98	=98	=98
8c]	2r	4d
8Bnx	.	.
[4c	.	4c
=99	=99	=99
4c]	2r	8r
.	.	8cc
8r	.	4dd
8G	.	.
=100	=100	=100
8.d	2r	8b
.	.	4a
16c	.	.
8d	.	.
8B	.	[8dd
=101	=101	=101
4G	2r	16dd]
.	.	16cc
.	.	16b
.	.	16a
8.d	.	8f
.	.	16g
16c	.	16a
=102	=102	=102
8d	2r	8b
8B	.	8.g
4A	.	.
.	.	16e
.	.	8f#x
=103	=103	=103
2G	2r	4g
.	.	4r
=104	=104	=104
*>E	*>E	*>E
!! Section 'E'; (C) mensuration.
2g	2G	2b
=105	=105	=105
4f	4d	8r
.	.	8a
4g	4G	8b
.	.	[8dd
=106	=106	=106
8f	8r	16dd]
.	.	16cc
8e	8g	4cc
4d	4f	.
.	.	8bnx
=107	=107	=107
2c	8g	4cc
.	8a	.
.	8.g	8r
.	.	8a
.	16e	.
=108	=108	=108
8r	4d	4b
8G	.	.
4F	4f	8a
.	.	8cc
=109	=109	=109
4E	4g	8cc
.	.	8b
4F	8.f	8.a
.	16d	16f
=110	=110	=110
4G	4B	8e
.	.	8d
4A	8e	4c
.	[8f	.
=111	=111	=111
4B	8f]	8d
.	8d	8.f
4c	4c	.
.	.	16e
.	.	[8g
=112	=112	=112
4.d	8B	16g]
.	.	16f
.	4F	8.a
.	.	16f
8c	8c	8e
=113	=113	=113
8B	4d	8f
8G	.	4g
4A	4c	.
.	.	8f#x
=114	=114	=114
2G	2d	2g
=115	=115	=115
2c	4e	2r
.	4g	.
=116	=116	=116
8r	8f	4b
8G	8e	.
4F	4f	8a
.	.	[8cc
=117	=117	=117
4E	4g	8cc]
.	.	8b
4F	8f	8.a
.	8c	.
.	.	16f
=118	=118	=118
4G	4B	8e
.	.	8d
4A	4c	4f
=119	=119	=119
4B	4G	8d
.	.	8.g
4A	8r	.
.	.	16f
.	8c	[8f
=120	=120	=120
4G	4B	8f]
.	.	8e
[4F	4c	8f
.	.	[8a
=121	=121	=121
4F]	4f	8a]
.	.	4cc
8A	8e	.
8G	8g	8b
=122	=122	=122
8A	8.f	8a
8B	.	16g
.	16d	16f
4c	4c	8e
.	.	[8g
=123	=123	=123
8A	8F	16g]
.	.	16f
8F	8c	8.f
4G	8B	.
.	.	16e
.	16A	16e
.	16B	16d
=124	=124	=124
[2F	[2c	[2f
=125	=125	=125
2F]	2c]	2f]
==	==	==
*-	*-	*-
!!!ENC: Mark Laxton
!!!EDD: Mark Laxton
!!!YEC: Mark Laxton, 1987
!!!EMD: Reference records added by D. Huron, 2001
!!!EEV: 1.1
